X:1
T:The False Alarm.
T:The False Alarm.
T:March and Two-Step.
T:HARRY J. LINCOLN
T:Copyright 1905 by Vandersloot Music Co.
T:Copyright 1905 by Vandersloot Music Co.
T:Copyright 1905 by Vandersloot Music Co.
T:Copyright 1905 by Vandersloot Music Co.
C:HARRY J. LINCOLN
Z:Copyright 1905 by Vandersloot Music Co.
%%score { ( 1 2 ) | ( 3 4 ) }
L:1/8
Q:1/4=180
M:2/2
K:C
V:1 treble nm="Piano" snm="Pno."
V:2 treble 
V:3 bass 
V:4 bass 
V:1
!ff!"_m.s." g3 ^f !^!g2 !^!a2 | !^!g2 !^!=f2 !^!d2 !^!B2 | !^!G3 ^F !^!G2 !^!A2 | %3
 !^!G2 z2 !^![GBdg]2 z2 |:!mf! [Ece]3 [EBe] [EBe]3 [EAe] | [EAe]2 [EAe]2 [EBe]4 | %6
 [EGe]2 [EAe]4 [Ece]2 | [FBf]8 | [Fdf]3 [Fcf] [Fcf]3 [FBf] | [FBf]2 [FAf]2 [FAf]4 | %10
 [FBf]2 [FAf]4 [Fcf]2 | [EGe]8 | [Ece]3 [EBe] [EBe]3 [EAe] | [EAe]2 [EAe]2 [EBe]4 | %14
 [EGe]2 [EAe]4 [Ece]2 | [DBd]4- [DBd]BAG |!f! !^![D^FAd]2 !^![DFAd]2- [DFAd]cBA | %17
 !^![DGd]2 !^![DGd]2- [DGd]BAG | !^![D^Fd]2 !^![Ec]2 !^![DB]2 !^![CA]2 |1 %19
 !^![B,G]2 z2 !^![GBdg]2 z2 :|2 !^![B,G]2 GG G2 G2 |:!ff! [Gf]3 [^Gf] [Gf]2 [Af]2 | %22
 [Af]2 [Bf]2 [Bf]2 [Gdf]2 | [Fdf]2 [Ece]6- | [Ece]2 [Ec]2 [Ed]2 [Ec]2 | [Fc]2 [FB]6- | %26
 [FB]2 [F^A]2 [FB]2 [F=A]2 | [EA]2 [EG]6- | [EG]2 GG G2 G2 | [Gf]3 [^Gf] [Gf]2 [Af]2 | %30
 [Af]2 [Bf]2 [Bf]2 [Gdf]2 | [Fdf]2 [Ece]6- | [Ece]2 z2 ((!^![^Fc_e^f]4 | %33
"_m.s." [Gceg]2)) [ce][ce] [ce]2 [Gc][Gc] | [Gc]2 [EG]2 [Gc]2 [ce]2 | [eg]2 z2 (([FGB]4 |1 %36
 [EGc]2)) GG G2 G2 :|2 [EGc]2 [EGc][EGc] [EGc]2 z2 ||[K:F]!p!"_TRIO." (F2 E2 D2 C2 | F6 G2 | %40
 A4 d4 | c6) (C2 | F2 E2 D2 C2 | F6 G2 | A4 c4 | G6) (C2 | F2 E2 D2 C2 | F6 G2 | A4 d4 | c6) c2 | %50
 (!^!f4 e3 d | cd)cA FAFD | C2 z2 ((!^![Bce]4 | [Acf]2)) [Acf][Acf] !^![Acf]2 z2 |: %54
"_m.s."!f! (a^gab a2) z2 | (A^GAB A2) z2 | A2!<(! ^GA B2!<)! x2 | %57
 !>![Ad]2 !>![GA^c]2 !>![FAd]2 z2 |"_m.s." (g^fga g2) z2 | (G^FGA G2) z2 | %60
 (G2!<(! ^FG ^GA!<)!B=B) | !>![Gc]2 !>![FG=B]2 !>![EGc]2 z2 | [GBc]2 !>![GB^c]4 [GBd]2 | %63
 [GB^d]2 !>![GBe]4 [Bf]2 | [Beg]2 (cd efga | [eb]2) z2 z2 c2 || [Af]2 [Ae]2 [Ad]2 [Ac]2 | f6 g2 | %68
 [Aa]4 [dd']4 | [cc']6 c2 | [Af]2 [Ae]2 [Ad]2 [Ac]2 | f6 g2 | [Aa]4 [cc']4 | [Gg]6 c2 | %74
 [Af]2 [Ae]2 [Ad]2 [Ac]2 | f6 g2 | [Aa]4 [dd']4 | [cc']6 [cc']2 | (!^![ff']4 [ee']3 d' | %79
 c')d'c'a fafd | c2 z2 ((!^![Bce]4 | [Acf]2)) [Acf][Acf] !^![Acf]2 z2 :| %82
V:2
 G3 ^F G2 A2 | G2 =F2 D2 B,2 | x8 | x8 |: x8 | x8 | x8 | x8 | x8 | x8 | x8 | x8 | x8 | x8 | x8 | %15
 x8 | x8 | x8 | x8 |1 x8 :|2 x8 |: x8 | x8 | x8 | x8 | x8 | x8 | x8 | x8 | x8 | x8 | x8 | x8 | %33
 x2 GG G2 EE | E2 C2 E2 G2 | c2 x6 |1 x8 :|2 x8 ||[K:F] z2 [A,C]2 z2 A,2 | z2 [A,C]2 z2 [B,CE]2 | %40
 z2 [CF]2 z2 [DFA]2 | z2 [CFA]2 z2 C2 | z2 [A,C]2 z2 A,2 | z2 [A,C]2 z2 [B,C]2 | %44
 z2 [CF]2 z2 [CF]2 | z2 ([B,E]2 [B,D]2 [B,C]2) | z2 [A,C]2 z2 A,2 | z2 [A,C]2 z2 [B,CE]2 | %48
 z2 [CF]2 z2 [DFA]2 | z2 [CFA]2 z2 [CFA]2 | [GB]4 [F^G]4 | [FA]2 z2 z4 | x8 | x8 |: (A^GAB A2) x2 | %55
 x8 | x4 B=Bc^c | x8 | (G^FGA G2) x2 | x8 | x8 | x8 | x8 | x8 | x8 | x8 || x8 | %67
 z2 [Ac]2 z2 [Bce]2 | z2 [cf]2 z2 [fa]2 | z2 (fg a2) c2 | x8 | z2 [Ac]2 z2 [Bce]2 | %72
 z2 [cf]2 z2 [fa]2 | x2 (cd e2) c2 | x8 | z2 [Ac]2 z2 [Bce]2 | z2 [cf]2 z2 [fa]2 | z2 (fg a2) x2 | %78
 x8 | x8 | x8 | x8 :| %82
V:3
 x8 | x8 | !^![G,,G,]3 [^F,,^F,] !^![G,,G,]2 !^![A,,A,]2 | !^![G,,G,]2 z2 !^![G,,G,]2 z2 |: %4
 C,2 [G,C]2 G,,2 [G,C]2 | C,2 [G,C]2 G,,2 [G,C]2 | C,2 [G,C]2 G,,2 [G,C]2 | %7
 D,2 [G,B,]2 G,,2 [G,B,]2 | D,2 [G,B,]2 G,,2 [G,B,]2 | D,2 [G,B,]2 G,,2 [G,B,]2 | %10
 D,2 [G,B,]2 G,,2 [G,B,]2 | C,2 [G,C]2 G,,2 [G,C]2 | C,2 [G,C]2 G,,2 [G,C]2 | %13
 C,2 [G,C]2 G,,2 [G,C]2 | C,2 [G,C]2 G,,2 [G,C]2 | z2 [G,B,][G,B,] [G,B,]2 z2 | %16
 !^![C,C]2 !^![C,C]2 z4 | !^![B,,B,]2 !^![B,,B,]2 z4 | %18
 !^![A,,A,]2 !^![D,,D,]2 !^![E,,E,]2 !^![^F,,^F,]2 |1 !^![G,,G,]2 z2 !^![G,,G,]2 z2 :|2 %20
 !^![G,,G,]2 G,G, G,2 G,2 |: D,2 [G,B,]2 G,,2 [G,B,]2 | D,2 [G,B,]2 G,,2 [G,B,]2 | %23
 C,2 [G,C]2 G,,2 [G,C]2 | C,2 [G,C]2 G,,2 [G,C]2 | D,2 [G,B,]2 G,,2 [G,B,]2 | %26
 D,2 [G,B,]2 G,,2 [G,B,]2 | C,2 [G,C]2 G,,2 [G,C]2 | [C,G,C]2 G,G, G,2 G,2 | %29
 D,2 [G,B,]2 G,,2 [G,B,]2 | D,2 [G,B,]2 G,,2 [G,B,]2 | C,2 [G,C]2 G,,2 [G,C]2 | %32
 [C,G,C]2 z2 [_A,,_A,]4 | [G,,G,]2 x6 | x8 | x2 z2 ((!^![G,,G,]4 |1 [C,,C,]2)) G,G, G,2 G,2 :|2 %37
 [C,,C,]2 z2 !^![C,,C,]2 z2 ||[K:F] F,,2 C,2 C,,2 C,2 | ([F,,F,]2 [E,,E,]2 [D,,D,]2 [C,,C,]2) | %40
 F,,2 C,2 C,,2 C,2 | F,,2 C,2 C,,2 C,2 | F,,2 C,2 C,,2 C,2 | %43
 ([F,,F,]2 [E,,E,]2 [D,,D,]2 [C,,C,]2) | [F,,F,]4 [A,,A,]4 | z2 (G,2 F,2 E,2) | F,,2 C,2 C,,2 C,2 | %47
 [F,,F,]2 [E,,E,]2 [D,,D,]2 [C,,C,]2 | F,,2 C,2 C,,2 C,2 | (F,,2 C,2 F,2 A,2) | ([B,D]4 =B,4 | %51
 D2) z2 z4 | z4 ((!^![C,G,C]4 | [F,,F,]2)) z2 !^![F,,F,]2 z2 |: x8 | (A,^G,A,B, A,2) z2 | %56
 !^![A,^CE]6 !>![=G,CE]2 | !>![F,F]2 !>![E,E]2 !>![D,D]2 z2 | x8 | (G,^F,G,A, G,2) z2 | %60
 !^![G,=B,D]6 !>![=F,=F]2 | !>![E,E]2 !>![D,D]2 !>![C,C]2 z2 | [E,E]2 [_E,_E]4 [D,D]2 | %63
 [_D,_D]2 [C,C]4 [D,D]2 | [C,C]2 z2 z4 | !^![C,C]2 !^![B,,B,]2 !^![A,,A,]2 !^![G,,G,]2 || %66
 [F,,F,]2 [A,C]2 C,2 [A,C]2 | [F,F]2 [E,E]2 [D,D]2 [C,C]2 | F,2 [A,C]2 C,2 [A,C]2 | %69
 F,2 [A,C]2 C,2 [A,C]2 | F,2 [A,C]2 C,2 [A,C]2 | [F,F]2 [E,E]2 [D,D]2 [C,C]2 | %72
 F,2 [A,C]2 C,2 [A,C]2 | E,2 [B,C]2 C,2 [B,C]2 | F,2 [A,C]2 C,2 [A,C]2 | %75
 [F,F]2 [E,E]2 [D,D]2 [C,C]2 | F,2 [A,C]2 C,2 [A,C]2 | F,2 [A,C]2 A,2 [CF]2 | %78
[K:treble] ((!^![B,DG]4 [=B,F^G]4 | [CFA]2)) z2 FAFD | C2 z2[K:bass] ((!^![C,G,C]4 | %81
 [F,,F,]2)) z2 !^![F,,F,]2 z2 :| %82
V:4
 x8 | x8 | x8 | x8 |: x8 | x8 | x8 | x8 | x8 | x8 | x8 | x8 | x8 | x8 | x8 | D,4- D,2 x2 | x8 | %17
 x8 | x8 |1 x8 :|2 x8 |: x8 | x8 | x8 | x8 | x8 | x8 | x8 | x8 | x8 | x8 | x8 | x8 | x8 | x8 | %35
 x8 |1 x8 :|2 x8 ||[K:F] x8 | x8 | x8 | x8 | x8 | x8 | x8 | C,8 | x8 | x8 | x8 | x8 | x8 | x8 | %52
 x8 | x8 |: x8 | x8 | x8 | x8 | x8 | x8 | x8 | x8 | x8 | x8 | x8 | x8 || x8 | x8 | x8 | x8 | x8 | %71
 x8 | x8 | x8 | x8 | x8 | x8 | x8 |[K:treble] x8 | x8 | x4[K:bass] x4 | x8 :| %82

